X:27
T:Cumberland Waltz
M:3/4
S: Greg Stephens collection
L:1/8
K:D
AA| D2 F2 AA| D2 F2 AA | D2 F2 A2|f4 fg|f2 e2 d2|
|1A4 AB|A2 F2 D2|E4:|2A4 AA|A2 c2 e2|D4|:
A2|f4 A2|e4 d2|cc c2 B2|G4 A2|
Bc B2 A2|Bc B2 A2|1Bc B2 A2|F4:|2A2 c2 e2|D4||
%%vskip .5cm
